X:1
T:Title
%%score ( 1 2 ) ( 3 4 )
L:1/8
M:4/4
K:D
V:1 treble nm="Choir Aahs, Staff"
V:2 treble 
V:3 bass nm="Choir Aahs, Staff-1"
V:4 bass 
V:1
 DEFG [EA]2 [FA]2 | [GB]2 [Gc]2 [Fd]4 | cd [Ee]2 AB [Ec]2 | [FB]2 B-[DB] [CA]4 | %4
 [FA]2 dc [GB]2 [FA]2 | [EG]2 [DF]2 [CE]4 | z4 G2 z2 | ED [CE]2 D4 |] %8
V:2
 z2 D2 z4 | x8 | E2 z2 F2 z2 | z2 .E2 z4 | z2 D2 z4 | x8 | [DA]2 D2 B,C [DF]2 | x8 |] %8
V:3
 F,G,A,B, [C,A,]2 [D,D]2 | [G,D]2 [E,A,]2 [D,A,]4 | A,2 [^G,B,]2 [F,C]2 [C,A,]2 | %3
w: By~Friedrich~Silcher * * * * *|||
 [D,F,]2 [E,^G,]2 [A,,A,]4 | [D,A,]2 [F,A,]2 [G,D]2 [D,D]2 | [E,B,]2 A,-[G,A,] A,4 | %6
w: |||
 [F,A,]2 [B,,F,]2 [E,G,]2 [D,A,]2 | z2 .A,2 z4 |] %8
w: ||
V:4
 D,2 D,2 z4 | x8 | x8 | x8 | x8 | z2 .F,2 z4 | x8 | [G,,B,]2 A,,-[A,,G,] [D,F,]4 |] %8

